X: 29673
T: Nos Wener
R: reel
M: 4/4
K: Dmajor
|:D2FA d2f2|edcB AGFE|D2FA d2f2|edcd e2d2:|
|:a2fd a2fd|edcB AGFE|D2FA d2g2|1 fdec defg:|2 fdec d2d2||

